;FLAVOR:Marlin
;TIME:7962
;Filament used: 6.13028m
;Layer height: 0.2
;MINX:66.97
;MINY:66.983
;MINZ:0.2
;MAXX:153.03
;MAXY:153.017
;MAXZ:14.2
;Generated with Cura_SteamEngine 4.2.1
M140 S50
M105
M190 S50
M104 S200
M105
M109 S200
M82 ;absolute extrusion mode
M201 X500.00 Y500.00 Z100.00 E5000.00 ;Setup machine max acceleration
M203 X500.00 Y500.00 Z10.00 E50.00 ;Setup machine max feedrate
M204 P500.00 R1000.00 T500.00 ;Setup Print/Retract/Travel acceleration
M205 X8.00 Y8.00 Z0.40 E5.00 ;Setup Jerk
M220 S100 ;Reset Feedrate
M221 S100 ;Reset Flowrate

G28 ;Home

G92 E0 ;Reset Extruder
G1 Z2.0 F3000 ;Move Z Axis up
G1 X10.1 Y20 Z0.28 F5000.0 ;Move to start position
G1 X10.1 Y200.0 Z0.28 F1500.0 E15 ;Draw the first line
G1 X10.4 Y200.0 Z0.28 F5000.0 ;Move to side a little
G1 X10.4 Y20 Z0.28 F1500.0 E30 ;Draw the second line
G92 E0 ;Reset Extruder
G1 Z2.0 F3000 ;Move Z Axis up

M141 S28
G92 E0
G92 E0
G1 F2700 E-7
;LAYER_COUNT:70
;LAYER:0
M107
G0 F6000 X79.719 Y79.785 Z0.2
;TYPE:SUPPORT
G1 F2700 E0
G1 F1200 X80.872 Y78.669 E0.05871
G1 X81.117 Y78.445 E0.07085
G1 X82.42 Y77.299 E0.13434
G1 X82.706 Y77.06 E0.14798
G1 X84.061 Y75.983 E0.2113
G1 X84.328 Y75.785 E0.22346
G1 X85.74 Y74.768 E0.28713
G1 X86.098 Y74.525 E0.30296
G1 X87.4 Y73.681 E0.35973
G1 X87.9 Y73.376 E0.38115
G1 X89.111 Y72.672 E0.4324
G1 X89.733 Y72.333 E0.45832
G1 X90.971 Y71.691 E0.50934
G1 X91.806 Y71.284 E0.54333
G1 X92.898 Y70.791 E0.58716
G1 X93.601 Y70.49 E0.61514
G1 X94.874 Y69.987 E0.66522
G1 X95.617 Y69.711 E0.69422
G1 X96.838 Y69.295 E0.74141
G1 X97.447 Y69.104 E0.76476
G1 X98.796 Y68.716 E0.81612
G1 X99.501 Y68.533 E0.84276
G1 X100.889 Y68.202 E0.89497
G1 X101.597 Y68.053 E0.92144
G1 X102.805 Y67.834 E0.96636
G1 X103.752 Y67.681 E1.00145
G1 X104.72 Y67.554 E1.03717
G1 X105.857 Y67.427 E1.07903
G1 X106.996 Y67.327 E1.12086
G1 X107.772 Y67.281 E1.1493
G1 X109.03 Y67.236 E1.19536
G1 X110 Y67.223 E1.23085
G1 X110.969 Y67.236 E1.2663
G1 X112.274 Y67.283 E1.31408
G1 X112.984 Y67.326 E1.3401
G1 X114.239 Y67.433 E1.38619
G1 X115.148 Y67.537 E1.41966
G1 X116.251 Y67.683 E1.46037
G1 X117.182 Y67.834 E1.49487
G1 X118.444 Y68.063 E1.5418
G1 X118.887 Y68.154 E1.55834
G1 X120.375 Y68.5 E1.61424
G1 X121.01 Y68.671 E1.6383
G1 X122.468 Y69.081 E1.69371
G1 X123.029 Y69.256 E1.71521
G1 X123.469 Y69.429 E1.73251
G1 X124.436 Y69.731 E1.76957
G1 X125.126 Y69.986 E1.79648
G1 X126.376 Y70.482 E1.84568
G1 X127.055 Y70.772 E1.8727
G1 X128.354 Y71.36 E1.92486
G1 X128.95 Y71.652 E1.94915
G1 X130.188 Y72.284 E2
G1 X130.571 Y72.497 E2.01603
G1 X132.005 Y73.316 E2.07645
G1 X132.356 Y73.531 E2.09151
G1 X133.76 Y74.431 E2.15253
G1 X133.987 Y74.657 E2.16425
G1 X134.193 Y74.723 E2.17216
G1 X135.442 Y75.61 E2.22821
G1 X136.046 Y76.062 E2.25581
G1 X137.091 Y76.893 E2.30466
G1 X137.428 Y77.175 E2.32073
G1 X138.719 Y78.299 E2.38336
G1 X139.154 Y78.695 E2.40488
G1 X140.607 Y80.114 E2.47918
G1 X142.013 Y81.627 E2.55475
G1 X143.336 Y83.195 E2.62981
G1 X144.623 Y84.877 E2.7073
G1 X145.761 Y86.527 E2.78063
G1 X146.899 Y88.357 E2.85947
G1 X147.874 Y90.112 E2.93292
G1 X148.812 Y92.012 E3.01045
G1 X149.613 Y93.854 E3.08393
G1 X150.093 Y95.13 E3.13381
G1 X150.993 Y97.784 E3.23634
G1 X151.526 Y99.74 E3.31051
G1 X151.982 Y101.803 E3.38781
G1 X152.328 Y103.824 E3.46283
G1 X152.572 Y105.833 E3.53687
G1 X152.727 Y107.954 E3.61468
G1 X152.727 Y108.082 E3.61936
G1 X152.777 Y109.835 E3.68352
G1 X152.777 Y110.081 E3.69252
G1 X152.725 Y112.068 E3.76524
G1 X152.566 Y114.236 E3.84478
G1 X152.315 Y116.276 E3.91997
G1 X151.963 Y118.308 E3.99542
G1 X151.489 Y120.414 E4.0744
G1 X150.928 Y122.452 E4.15174
G1 X150.288 Y124.384 E4.2262
G1 X149.514 Y126.377 E4.30442
G1 X148.673 Y128.285 E4.38071
G1 X147.729 Y130.154 E4.45732
G1 X146.673 Y132.023 E4.53585
G1 X145.609 Y133.706 E4.6087
G1 X144.338 Y135.512 E4.6895
G1 X143.1 Y137.095 E4.76302
G1 X141.661 Y138.764 E4.84365
G1 X140.278 Y140.219 E4.91709
G1 X139.203 Y141.259 E4.97182
G1 X138.861 Y141.573 E4.9888
G1 X137.591 Y142.689 E5.05066
G1 X137.267 Y142.959 E5.06609
G1 X136.02 Y143.954 E5.12445
G1 X135.6 Y144.267 E5.14362
G1 X134.312 Y145.194 E5.20168
G1 X133.918 Y145.462 E5.21911
G1 X132.597 Y146.321 E5.27676
G1 X132.112 Y146.616 E5.29753
G1 X130.826 Y147.365 E5.35198
G1 X130.3 Y147.654 E5.37393
G1 X129.079 Y148.284 E5.4242
G1 X128.218 Y148.704 E5.45925
G1 X127.111 Y149.206 E5.50372
G1 X126.447 Y149.489 E5.53013
G1 X125.156 Y150.003 E5.58097
G1 X124.456 Y150.262 E5.60827
G1 X123.249 Y150.675 E5.65495
G1 X122.392 Y150.942 E5.68779
G1 X121.302 Y151.259 E5.72932
G1 X120.367 Y151.503 E5.76467
G1 X119.215 Y151.769 E5.80793
G1 X118.311 Y151.964 E5.84176
G1 X117.284 Y152.151 E5.87996
G1 X116.256 Y152.317 E5.91805
G1 X115.25 Y152.449 E5.95517
G1 X114.138 Y152.573 E5.99611
G1 X112.953 Y152.677 E6.03963
G1 X112.257 Y152.718 E6.06514
G1 X110.97 Y152.764 E6.11226
G1 X110 Y152.777 E6.14775
G1 X109.031 Y152.764 E6.1832
G1 X107.734 Y152.717 E6.23069
G1 X107.002 Y152.672 E6.25752
G1 X105.778 Y152.57 E6.30246
G1 X104.849 Y152.463 E6.33667
G1 X103.735 Y152.315 E6.37778
G1 X102.781 Y152.163 E6.41313
G1 X101.641 Y151.955 E6.45552
G1 X100.984 Y151.817 E6.48009
G1 X99.667 Y151.507 E6.52959
G1 X98.794 Y151.282 E6.56257
G1 X97.553 Y150.926 E6.6098
G1 X96.796 Y150.688 E6.63884
G1 X95.587 Y150.275 E6.68558
G1 X94.793 Y149.985 E6.71651
G1 X93.638 Y149.525 E6.76199
G1 X92.921 Y149.221 E6.79048
G1 X91.725 Y148.676 E6.83857
G1 X91.024 Y148.336 E6.86707
G1 X89.79 Y147.703 E6.91781
G1 X89.412 Y147.495 E6.9336
G1 X88.052 Y146.715 E6.99096
G1 X87.574 Y146.426 E7.01139
G1 X86.245 Y145.577 E7.06909
G1 X86.017 Y145.35 E7.08086
G1 X85.817 Y145.287 E7.08854
G1 X84.495 Y144.346 E7.1479
G1 X84.027 Y143.993 E7.16935
G1 X82.857 Y143.062 E7.22405
G1 X82.489 Y142.754 E7.24161
G1 X81.278 Y141.699 E7.30037
G1 X80.844 Y141.3 E7.32194
G1 X79.394 Y139.885 E7.39607
G1 X77.959 Y138.341 E7.47318
G1 X76.644 Y136.782 E7.5478
G1 X75.377 Y135.123 E7.62418
G1 X74.214 Y133.435 E7.69917
G1 X73.116 Y131.674 E7.7751
G1 X72.13 Y129.89 E7.84967
G1 X71.199 Y128.004 E7.92662
G1 X70.36 Y126.073 E8.00365
G1 X69.884 Y124.824 E8.05256
G1 X69.784 Y124.459 E8.0664
G1 X68.988 Y122.172 E8.155
G1 X68.456 Y120.213 E8.22927
G1 X68.028 Y118.271 E8.30202
G1 X67.664 Y116.123 E8.38173
G1 X67.429 Y114.186 E8.45311
G1 X67.232 Y109.994 E8.60665
G1 X67.439 Y105.724 E8.76306
G1 X67.683 Y103.723 E8.83681
G1 X68.044 Y101.662 E8.91336
G1 X68.505 Y99.597 E8.99077
G1 X69.057 Y97.609 E9.06626
G1 X69.738 Y95.553 E9.1455
G1 X70.479 Y93.637 E9.22066
G1 X71.333 Y91.701 E9.29807
G1 X72.287 Y89.813 E9.37546
G1 X73.318 Y87.988 E9.45215
G1 X74.396 Y86.288 E9.5258
G1 X75.637 Y84.524 E9.60471
G1 X76.923 Y82.873 E9.68127
G1 X78.334 Y81.24 E9.76023
G1 X79.719 Y79.785 E9.83373
G0 F6000 X80.038 Y80.088
G1 F1200 X81.169 Y78.994 E9.8913
G1 X81.414 Y78.77 E9.90344
G1 X82.702 Y77.637 E9.9662
G1 X82.988 Y77.398 E9.97984
G1 X84.335 Y76.327 E10.0428
G1 X84.585 Y76.142 E10.05418
G1 X85.987 Y75.132 E10.11739
G1 X86.345 Y74.889 E10.13323
G1 X87.629 Y74.057 E10.1892
G1 X88.129 Y73.752 E10.21063
G1 X89.322 Y73.058 E10.26112
G1 X89.936 Y72.724 E10.2867
G1 X91.164 Y72.087 E10.33731
G1 X91.999 Y71.68 E10.3713
G1 X93.079 Y71.192 E10.41465
G1 X93.763 Y70.899 E10.44188
G1 X95.036 Y70.396 E10.49196
G1 X95.759 Y70.127 E10.52018
G1 X96.97 Y69.714 E10.56699
G1 X97.569 Y69.527 E10.58995
G1 X98.913 Y69.14 E10.64112
G1 X99.612 Y68.959 E10.66754
G1 X100.98 Y68.633 E10.71899
G1 X101.688 Y68.484 E10.74546
G1 X102.883 Y68.267 E10.78989
G1 X103.812 Y68.117 E10.82432
G1 X104.769 Y67.991 E10.85964
G1 X105.906 Y67.864 E10.9015
G1 X107.024 Y67.766 E10.94256
G1 X107.788 Y67.721 E10.97056
G1 X109.046 Y67.676 E11.01661
G1 X110 Y67.663 E11.05152
G1 X110.953 Y67.676 E11.08639
G1 X112.258 Y67.723 E11.13416
G1 X112.957 Y67.765 E11.15978
G1 X114.189 Y67.87 E11.20502
G1 X115.098 Y67.974 E11.23849
G1 X116.193 Y68.119 E11.27891
G1 X117.103 Y68.267 E11.31264
G1 X118.365 Y68.496 E11.35956
G1 X118.787 Y68.583 E11.37533
G1 X120.275 Y68.929 E11.43122
G1 X120.891 Y69.095 E11.45456
G1 X122.349 Y69.505 E11.50997
G1 X122.888 Y69.673 E11.53063
G1 X123.323 Y69.844 E11.54773
G1 X124.283 Y70.144 E11.58452
G1 X124.973 Y70.399 E11.61144
G1 X126.203 Y70.887 E11.65985
G1 X126.882 Y71.177 E11.68686
G1 X128.16 Y71.755 E11.73818
G1 X128.75 Y72.044 E11.76222
G1 X129.974 Y72.669 E11.8125
G1 X130.357 Y72.882 E11.82853
G1 X131.775 Y73.691 E11.88826
G1 X132.126 Y73.906 E11.90332
G1 X133.482 Y74.774 E11.96223
G1 X133.752 Y75.044 E11.9762
G1 X133.993 Y75.121 E11.98545
G1 X135.187 Y75.969 E12.03903
G1 X135.782 Y76.414 E12.06622
G1 X136.817 Y77.237 E12.11459
G1 X137.139 Y77.507 E12.12997
G1 X138.43 Y78.631 E12.19259
G1 X138.847 Y79.01 E12.21321
G1 X140.285 Y80.414 E12.28674
G1 X141.686 Y81.921 E12.36202
G1 X143 Y83.479 E12.43659
G1 X144.261 Y85.127 E12.51251
G1 X145.387 Y86.759 E12.58505
G1 X146.514 Y88.571 E12.66312
G1 X147.483 Y90.316 E12.73614
G1 X148.417 Y92.207 E12.81331
G1 X149.209 Y94.029 E12.88599
G1 X149.676 Y95.271 E12.93454
G1 X150.568 Y97.9 E13.03611
G1 X151.101 Y99.856 E13.11028
G1 X151.552 Y101.898 E13.18679
G1 X151.894 Y103.898 E13.26103
G1 X152.135 Y105.886 E13.33429
G1 X152.287 Y107.972 E13.41081
G1 X152.287 Y108.088 E13.41506
G1 X152.337 Y109.835 E13.479
G1 X152.337 Y110.069 E13.48756
G1 X152.286 Y112.036 E13.55955
G1 X152.128 Y114.19 E13.63857
G1 X151.881 Y116.201 E13.71269
G1 X151.529 Y118.233 E13.78815
G1 X151.065 Y120.297 E13.86554
G1 X150.51 Y122.314 E13.94208
G1 X149.871 Y124.243 E14.01643
G1 X149.111 Y126.2 E14.09324
G1 X148.274 Y128.099 E14.16916
G1 X147.337 Y129.953 E14.24516
G1 X146.301 Y131.788 E14.32226
G1 X145.243 Y133.462 E14.39471
G1 X143.991 Y135.241 E14.4743
G1 X142.753 Y136.824 E14.54782
G1 X141.342 Y138.461 E14.62689
G1 X139.964 Y139.911 E14.70008
G1 X138.905 Y140.935 E14.75397
G1 X138.571 Y141.242 E14.77057
G1 X137.309 Y142.351 E14.83204
G1 X136.985 Y142.621 E14.84747
G1 X135.757 Y143.601 E14.90495
G1 X135.337 Y143.914 E14.92411
G1 X134.065 Y144.83 E14.98146
G1 X133.678 Y145.093 E14.99858
G1 X132.368 Y145.945 E15.05575
G1 X131.883 Y146.24 E15.07652
G1 X130.614 Y146.98 E15.13027
G1 X130.088 Y147.268 E15.15221
G1 X128.877 Y147.893 E15.20207
G1 X128.036 Y148.304 E15.23631
G1 X126.938 Y148.801 E15.28041
G1 X126.275 Y149.084 E15.30678
G1 X125.003 Y149.59 E15.35687
G1 X124.303 Y149.849 E15.38417
G1 X123.118 Y150.255 E15.43
G1 X122.261 Y150.522 E15.46284
G1 X121.191 Y150.833 E15.50361
G1 X120.264 Y151.075 E15.53866
G1 X119.116 Y151.34 E15.58177
G1 X118.232 Y151.531 E15.61486
G1 X117.205 Y151.718 E15.65305
G1 X116.196 Y151.881 E15.69044
G1 X115.201 Y152.012 E15.72716
G1 X114.09 Y152.136 E15.76806
G1 X112.925 Y152.238 E15.81084
G1 X112.241 Y152.278 E15.83591
G1 X110.954 Y152.324 E15.88303
G1 X110 Y152.337 E15.91794
G1 X109.047 Y152.324 E15.9528
G1 X107.75 Y152.277 E16.00029
G1 X107.029 Y152.233 E16.02672
G1 X105.828 Y152.133 E16.07081
G1 X104.899 Y152.026 E16.10502
G1 X103.804 Y151.88 E16.14544
G1 X102.85 Y151.728 E16.18078
G1 X101.731 Y151.524 E16.2224
G1 X101.074 Y151.386 E16.24696
G1 X99.777 Y151.081 E16.2957
G1 X98.909 Y150.857 E16.3285
G1 X97.685 Y150.506 E16.37509
G1 X96.928 Y150.268 E16.40412
G1 X95.738 Y149.862 E16.45012
G1 X94.956 Y149.576 E16.48059
G1 X93.801 Y149.116 E16.52607
G1 X93.093 Y148.816 E16.5542
G1 X91.917 Y148.28 E16.60149
G1 X91.216 Y147.94 E16.62999
G1 X89.991 Y147.312 E16.68035
G1 X89.631 Y147.114 E16.69539
G1 X88.28 Y146.338 E16.75239
G1 X87.802 Y146.049 E16.77282
G1 X86.52 Y145.23 E16.82848
G1 X86.251 Y144.963 E16.84235
G1 X86.014 Y144.888 E16.85144
G1 X84.757 Y143.993 E16.9079
G1 X84.292 Y143.642 E16.92921
G1 X83.131 Y142.718 E16.9835
G1 X82.778 Y142.422 E17.00035
G1 X81.567 Y141.367 E17.05912
G1 X81.142 Y140.976 E17.08024
G1 X79.712 Y139.581 E17.15333
G1 X78.286 Y138.047 E17.22996
G1 X76.991 Y136.511 E17.30346
G1 X75.727 Y134.856 E17.37965
G1 X74.576 Y133.185 E17.45389
G1 X73.497 Y131.454 E17.52852
G1 X72.525 Y129.695 E17.60204
G1 X71.594 Y127.809 E17.67899
G1 X70.764 Y125.898 E17.75522
G1 X70.301 Y124.684 E17.80276
G1 X70.204 Y124.328 E17.81626
G1 X69.408 Y122.038 E17.90495
G1 X68.884 Y120.11 E17.97805
G1 X68.458 Y118.176 E18.05051
G1 X68.098 Y116.049 E18.12943
G1 X67.868 Y114.153 E18.19931
G1 X67.673 Y109.984 E18.352
G1 X67.876 Y105.777 E18.5061
G1 X68.12 Y103.776 E18.57985
G1 X68.473 Y101.758 E18.6548
G1 X68.929 Y99.715 E18.73139
G1 X69.475 Y97.747 E18.80611
G1 X70.156 Y95.691 E18.88535
G1 X70.882 Y93.815 E18.95894
G1 X71.736 Y91.879 E19.03636
G1 X72.68 Y90.011 E19.11293
G1 X73.69 Y88.224 E19.18803
G1 X74.768 Y86.524 E19.26168
G1 X75.997 Y84.777 E19.33983
G1 X77.256 Y83.161 E19.41478
G1 X78.667 Y81.528 E19.49373
G1 X80.038 Y80.088 E19.56648
G1 F2700 E12.56648
G1 F600 Z0.4
G0 F6000 X80.103 Y81.591 Z0.4
G1 F600 Z0.2
G1 F2700 E19.56648
G1 F1200 X78.702 Y83.144 E19.643
G1 X77.382 Y84.764 E19.71945
G1 X76.153 Y86.439 E19.79546
G1 X75.003 Y88.183 E19.87189
G1 X73.937 Y89.994 E19.94877
G1 X72.97 Y91.845 E20.02518
G1 X72.098 Y93.745 E20.10167
G1 X71.323 Y95.685 E20.1781
G1 X70.648 Y97.662 E20.25453
G1 X70.073 Y99.673 E20.33105
G1 X69.605 Y101.696 E20.40702
G1 X69.234 Y103.763 E20.48385
G1 X68.97 Y105.838 E20.56038
G1 X68.812 Y107.909 E20.63637
G1 X68.76 Y110.009 E20.71322
G1 X68.812 Y112.094 E20.78953
G1 X68.97 Y114.169 E20.86567
G1 X69.235 Y116.242 E20.94213
G1 X69.605 Y118.307 E21.01888
G1 X70.075 Y120.334 E21.09501
G1 X70.65 Y122.344 E21.17149
G1 X71.325 Y124.32 E21.24789
G1 X72.101 Y126.261 E21.32437
G1 X72.973 Y128.16 E21.40082
G1 X73.94 Y130.011 E21.47723
G1 X75.006 Y131.822 E21.55411
G1 X76.156 Y133.566 E21.63054
G1 X77.386 Y135.242 E21.7066
G1 X78.706 Y136.86 E21.783
G1 X80.107 Y138.411 E21.85946
G1 X81.591 Y139.896 E21.93627
G1 X83.136 Y141.291 E22.01243
G1 X84.754 Y142.611 E22.08883
G1 X86.439 Y143.847 E22.16528
G1 X88.183 Y144.997 E22.24171
G1 X89.994 Y146.063 E22.3186
G1 X91.835 Y147.025 E22.39459
G1 X93.745 Y147.902 E22.47149
G1 X95.681 Y148.675 E22.54775
G1 X97.659 Y149.351 E22.62423
G1 X99.664 Y149.925 E22.70053
G1 X101.696 Y150.395 E22.77684
G1 X103.763 Y150.766 E22.85367
G1 X105.834 Y151.03 E22.93005
G1 X107.909 Y151.188 E23.00619
G1 X110.003 Y151.24 E23.08282
G1 X112.097 Y151.188 E23.15946
G1 X114.172 Y151.03 E23.2356
G1 X116.243 Y150.765 E23.31198
G1 X118.31 Y150.394 E23.38882
G1 X120.342 Y149.923 E23.46513
G1 X122.347 Y149.349 E23.54143
G1 X124.324 Y148.673 E23.61787
G1 X126.261 Y147.899 E23.69419
G1 X128.17 Y147.022 E23.77105
G1 X130.011 Y146.06 E23.84705
G1 X131.822 Y144.994 E23.92393
G1 X133.566 Y143.844 E24.00036
G1 X135.251 Y142.607 E24.07684
G1 X136.87 Y141.287 E24.15326
G1 X138.412 Y139.892 E24.22934
G1 X139.897 Y138.409 E24.30612
G1 X141.298 Y136.856 E24.38264
G1 X142.618 Y135.236 E24.4591
G1 X143.847 Y133.561 E24.5351
G1 X144.997 Y131.817 E24.61153
G1 X146.063 Y130.006 E24.68842
G1 X147.03 Y128.155 E24.76482
G1 X147.902 Y126.255 E24.84131
G1 X148.677 Y124.315 E24.91774
G1 X149.352 Y122.338 E24.99417
G1 X149.927 Y120.327 E25.07069
G1 X150.396 Y118.3 E25.14681
G1 X150.766 Y116.237 E25.22349
G1 X151.03 Y114.162 E25.30002
G1 X151.188 Y112.088 E25.37612
G1 X151.24 Y109.991 E25.45287
G1 X151.188 Y107.903 E25.52928
G1 X151.029 Y105.82 E25.60571
G1 X150.765 Y103.757 E25.68181
G1 X150.394 Y101.69 E25.75864
G1 X149.922 Y99.655 E25.83507
G1 X149.347 Y97.645 E25.91155
G1 X148.67 Y95.669 E25.98797
G1 X147.899 Y93.739 E26.06401
G1 X147.022 Y91.83 E26.14087
G1 X146.06 Y89.989 E26.21687
G1 X144.994 Y88.178 E26.29375
G1 X143.844 Y86.434 E26.37018
G1 X142.607 Y84.749 E26.44666
G1 X141.287 Y83.13 E26.52308
G1 X139.892 Y81.588 E26.59916
G1 X138.409 Y80.103 E26.67594
G1 X136.864 Y78.709 E26.75208
G1 X135.246 Y77.389 E26.82847
G1 X133.561 Y76.153 E26.90493
G1 X131.817 Y75.003 E26.98136
G1 X130.006 Y73.937 E27.05824
G1 X128.165 Y72.975 E27.13424
G1 X126.255 Y72.098 E27.21113
G1 X124.319 Y71.325 E27.2874
G1 X122.339 Y70.648 E27.36396
G1 X120.335 Y70.075 E27.44021
G1 X118.304 Y69.605 E27.51648
G1 X116.236 Y69.234 E27.59335
G1 X114.166 Y68.97 E27.6697
G1 X112.09 Y68.812 E27.74587
G1 X109.997 Y68.76 E27.82247
G1 X107.903 Y68.812 E27.89911
G1 X105.828 Y68.97 E27.97524
G1 X103.757 Y69.235 E28.05163
G1 X101.69 Y69.606 E28.12846
G1 X99.658 Y70.077 E28.20478
